X:1
T: Miss Grace Speirs of Elderslie's Reel
C:R. Mackintosh
R:Reel
Q: 232
K:Bb
M:4/4
L:1/8
|:b2 ab fb dB|ce dB Ac AF|b2 ab fb dB|Ac Fe dB B2|
b2 ab fb dB|ce dB Ac AF|b2 ab fb dB|Ac Fe dB B2|
DB dB EB dB|FB dB GB dB|DB dB EB dB|AF cA BB, B,B|
DB dB EB dB|FB dB GB dB|DB bB gB fB|A1/2B1/2c Fe dB B2:|
